; generated by Slic3r 1.2.9 on 2015-09-29 at 15:29:38

; external perimeters extrusion width = 0.40mm
; perimeters extrusion width = 0.40mm
; infill extrusion width = 0.40mm
; solid infill extrusion width = 0.40mm
; top infill extrusion width = 0.40mm

M107
M104 S210 ; set temperature
M83
T0
M116


M109 S210 ; wait for temperature to be reached
G21 ; set units to millimeters
G90 ; use absolute coordinates
M83 ; use relative distances for extrusion
G1 E-3.00000 F15000.00000
G1 Z0.400 F15000.000
G1 X-0.037 Y17.441 F15000.000
G1 Z0.350 F15000.000
G1 E3.00000 F15000.00000
G1 F960
G1 X-15.261 Y17.409 E1.16279
G1 X-16.398 Y17.288 E0.08734
G1 X-18.841 Y16.769 E0.19081
G1 X-19.940 Y16.412 E0.08822
G1 X-22.222 Y15.396 E0.19081
G1 X-23.222 Y14.818 E0.08821
G1 X-25.243 Y13.350 E0.19081
G1 X-26.102 Y12.577 E0.08822
G1 X-27.773 Y10.721 E0.19081
G1 X-28.452 Y9.786 E0.08822
G1 X-29.701 Y7.623 E0.19080
G1 X-30.171 Y6.568 E0.08820
G1 X-30.943 Y4.192 E0.19081
G1 X-31.183 Y3.062 E0.08824
G1 X-31.444 Y0.577 E0.19081
G1 X-31.444 Y-0.577 E0.08821
G1 X-31.183 Y-3.062 E0.19081
G1 X-30.943 Y-4.192 E0.08824
G1 X-30.171 Y-6.568 E0.19081
G1 X-29.701 Y-7.623 E0.08820
G1 X-28.452 Y-9.786 E0.19080
G1 X-27.773 Y-10.721 E0.08822
G1 X-26.102 Y-12.577 E0.19081
G1 X-25.243 Y-13.350 E0.08822
G1 X-23.222 Y-14.819 E0.19081
G1 X-22.222 Y-15.396 E0.08821
G1 X-19.940 Y-16.412 E0.19081
G1 X-18.841 Y-16.769 E0.08822
G1 X-16.398 Y-17.288 E0.19081
G1 X-15.261 Y-17.409 E0.08734
G1 X13.988 Y-17.471 E2.23400
G1 X16.114 Y-17.050 E0.16552
G1 F960
G1 X24.561 Y-13.551 E0.69833
G1 X26.308 Y-12.399 E0.15985
G1 X27.551 Y-10.561 E0.16945
G1 X31.050 Y-2.114 E0.69832
G1 X31.470 Y-0.064 E0.15985
G1 X31.050 Y2.114 E0.16944
G1 X27.551 Y10.561 E0.69832
G1 X26.399 Y12.308 E0.15985
G1 X24.561 Y13.551 E0.16945
G1 X16.114 Y17.050 E0.69833
G1 X13.988 Y17.471 E0.16552
G1 X0.023 Y17.441 E1.06663
G1 E-3.00000 F15000.00000
G1 Z0.750 F15000.000
G1 X5.485 Y-0.000 F15000.000
G1 Z0.350 F15000.000
G1 E3.00000 F15000.00000
G1 F1440
G1 X7.979 Y-6.021 E0.49777
G1 X14.000 Y-8.515 E0.49777
G1 X20.021 Y-6.021 E0.49777
G1 X22.515 Y0.000 E0.49777
G1 X20.021 Y6.021 E0.49777
G1 X14.000 Y8.515 E0.49777
G1 X7.979 Y6.021 E0.49777
G1 X5.508 Y0.055 E0.49319
G1 X6.053 Y-0.000 F15000.000
G1 F1440
G1 X8.381 Y-5.619 E0.46456
G1 X13.376 Y-7.689 E0.41301
G1 F1440
G1 X14.000 Y-7.947 E0.05155
G1 X19.619 Y-5.619 E0.46456
G1 X21.947 Y0.000 E0.46456
G1 X19.619 Y5.619 E0.46456
G1 X14.000 Y7.947 E0.46456
G1 X8.381 Y5.619 E0.46456
G1 X6.076 Y0.055 E0.45998
G1 X6.621 Y-0.000 F15000.000
G1 F1440
G1 X8.782 Y-5.218 E0.43135
G1 X13.577 Y-7.204 E0.39640
G1 F1440
G1 X14.000 Y-7.379 E0.03494
G1 X19.218 Y-5.218 E0.43134
G1 X21.379 Y0.000 E0.43135
G1 X19.218 Y5.218 E0.43135
G1 X14.000 Y7.379 E0.43134
G1 X8.782 Y5.218 E0.43134
G1 X6.644 Y0.055 E0.42677
G1 X6.621 Y-0.000 F15000.000
G1 X3.970 Y1.098 F15000.000
G1 F1440
G1 X3.515 Y-0.000 E0.09079
G1 X6.586 Y-7.414 E0.61292
G1 X14.000 Y-10.485 E0.61292
G1 X21.414 Y-7.414 E0.61292
G1 F1440
G1 X24.485 Y-0.000 E0.61292
G1 X21.414 Y7.414 E0.61292
G1 X14.000 Y10.485 E0.61292
G1 X6.586 Y7.414 E0.61292
G1 X3.993 Y1.154 E0.51755
G1 X3.485 Y1.299 F15000.000
G1 F1440
G1 X2.947 Y-0.000 E0.10739
G1 X6.184 Y-7.816 E0.64613
G1 X14.000 Y-11.053 E0.64613
G1 X21.656 Y-7.882 E0.63289
G1 F1440
G1 X21.816 Y-7.816 E0.01324
G1 X25.053 Y-0.000 E0.64613
G1 X21.816 Y7.816 E0.64613
G1 X14.000 Y11.053 E0.64613
G1 X6.184 Y7.816 E0.64613
G1 X3.508 Y1.354 E0.53416
G1 X3.000 Y1.500 F15000.000
G1 F1440
G1 X2.379 Y-0.000 E0.12400
G1 X5.783 Y-8.217 E0.67934
G1 X14.000 Y-11.621 E0.67934
G1 X21.856 Y-8.367 E0.64950
G1 F1440
G1 X22.217 Y-8.217 E0.02985
G1 X25.621 Y-0.000 E0.67934
G1 X22.217 Y8.217 E0.67934
G1 X14.000 Y11.621 E0.67934
G1 X5.783 Y8.217 E0.67934
G1 X3.023 Y1.555 E0.55076
G1 X3.195 Y1.151 F15000.000
G1 X4.674 Y1.841 F15000.000
G1 F600
G1 X6.684 Y3.851 E0.21781
G1 X5.726 Y4.382 F15000.000
G1 F600
G1 X9.618 Y8.274 E0.42153
G1 X10.149 Y7.316 F15000.000
G1 F600
G1 X12.159 Y9.326 E0.21780
G1 X12.691 Y8.369 F15000.000
G1 F600
G1 X14.356 Y10.034 E0.18038
G1 X13.430 Y9.853 F15000.000
G1 F600
G1 X11.420 Y7.842 E0.21780
G1 X10.888 Y8.800 F15000.000
G1 F600
G1 X8.878 Y6.789 E0.21781
G1 X8.347 Y7.747 F15000.000
G1 F600
G1 X6.253 Y5.653 E0.22683
G1 X7.211 Y5.122 F15000.000
G1 F600
G1 X5.200 Y3.112 E0.21781
G1 X6.158 Y2.580 F15000.000
G1 F600
G1 X4.147 Y0.570 E0.21781
G1 X3.966 Y-0.356 E0.07223
G1 X5.631 Y1.309 E0.18038
G1 X5.147 Y0.081 F15000.000
G1 F600
G1 X4.184 Y-0.882 E0.10435
G1 X4.402 Y-1.408 E0.04365
G1 X5.366 Y-0.445 E0.10435
G1 X5.584 Y-0.972 E0.04365
G1 X4.620 Y-1.935 E0.10435
G1 X4.838 Y-2.461 E0.04365
G1 X5.802 Y-1.498 E0.10435
G1 X6.020 Y-2.025 E0.04365
G1 X5.056 Y-2.988 E0.10435
G1 X5.274 Y-3.514 E0.04365
G1 X6.238 Y-2.551 E0.10435
G1 X6.456 Y-3.077 E0.04365
G1 X5.493 Y-4.041 E0.10435
G1 X5.711 Y-4.567 E0.04365
G1 X6.674 Y-3.604 E0.10435
G1 X6.892 Y-4.130 E0.04365
G1 X5.929 Y-5.093 E0.10435
G1 X6.147 Y-5.620 E0.04365
G1 X7.110 Y-4.657 E0.10435
G1 X7.328 Y-5.183 E0.04365
G1 X6.365 Y-6.146 E0.10435
G1 X6.583 Y-6.673 E0.04365
G1 X7.546 Y-5.709 E0.10435
G1 X7.764 Y-6.236 E0.04365
G1 X6.816 Y-7.184 E0.10270
G1 X7.327 Y-7.417 E0.04304
G1 X8.291 Y-6.454 E0.10435
G1 X8.817 Y-6.672 E0.04365
G1 X7.854 Y-7.635 E0.10435
G1 X8.380 Y-7.853 E0.04365
G1 X9.343 Y-6.890 E0.10435
G1 X9.870 Y-7.108 E0.04365
G1 X8.907 Y-8.071 E0.10435
G1 X9.433 Y-8.289 E0.04365
G1 X10.396 Y-7.326 E0.10435
G1 X10.923 Y-7.544 E0.04365
G1 X9.959 Y-8.507 E0.10435
G1 X10.486 Y-8.725 E0.04365
G1 X11.449 Y-7.762 E0.10435
G1 X11.975 Y-7.980 E0.04365
G1 X11.012 Y-8.944 E0.10435
G1 X11.539 Y-9.162 E0.04365
G1 X12.502 Y-8.198 E0.10435
G1 X13.028 Y-8.416 E0.04365
G1 X12.065 Y-9.380 E0.10435
G1 X12.591 Y-9.598 E0.04365
G1 X13.555 Y-8.634 E0.10435
G1 X14.081 Y-8.853 E0.04365
G1 X13.118 Y-9.816 E0.10435
G1 X13.644 Y-10.034 E0.04365
G1 X15.309 Y-8.369 E0.18037
G1 X15.841 Y-9.326 F15000.000
G1 F600
G1 X17.851 Y-7.316 E0.21780
G1 X18.382 Y-8.274 F15000.000
G1 F600
G1 X20.393 Y-6.263 E0.21781
G1 X20.263 Y-6.393 F15000.000
G1 F600
G1 X22.274 Y-4.382 E0.21781
G1 X21.316 Y-3.851 F15000.000
G1 F600
G1 X23.326 Y-1.841 E0.21781
G1 X22.369 Y-1.309 F15000.000
G1 F600
G1 X24.034 Y0.356 E0.18037
G1 X23.816 Y0.882 E0.04365
G1 X22.853 Y-0.081 E0.10435
G1 X22.634 Y0.445 E0.04365
G1 X23.598 Y1.408 E0.10435
G1 X23.380 Y1.935 E0.04365
G1 X22.416 Y0.972 E0.10435
G1 X22.198 Y1.498 E0.04365
G1 X23.162 Y2.461 E0.10435
G1 X22.944 Y2.988 E0.04365
G1 X21.980 Y2.025 E0.10435
G1 X21.762 Y2.551 E0.04365
G1 X22.725 Y3.514 E0.10435
G1 X22.507 Y4.041 E0.04365
G1 X21.544 Y3.077 E0.10435
G1 X21.326 Y3.604 E0.04365
G1 X22.289 Y4.567 E0.10435
G1 X22.071 Y5.093 E0.04365
G1 X21.108 Y4.130 E0.10435
G1 X20.890 Y4.657 E0.04365
G1 X21.853 Y5.620 E0.10435
G1 X21.635 Y6.146 E0.04365
G1 X20.672 Y5.183 E0.10435
G1 X20.454 Y5.709 E0.04365
G1 X21.417 Y6.673 E0.10435
G1 X21.184 Y7.184 E0.04304
G1 X20.236 Y6.236 E0.10269
G1 X19.709 Y6.454 E0.04365
G1 X20.673 Y7.417 E0.10435
G1 X20.146 Y7.635 E0.04365
G1 X19.183 Y6.672 E0.10435
G1 X18.657 Y6.890 E0.04365
G1 X19.620 Y7.853 E0.10435
G1 X19.093 Y8.071 E0.04365
G1 X18.130 Y7.108 E0.10435
G1 X17.604 Y7.326 E0.04365
G1 X18.567 Y8.289 E0.10435
G1 X18.041 Y8.507 E0.04365
G1 X17.077 Y7.544 E0.10435
G1 X16.551 Y7.762 E0.04365
G1 X17.514 Y8.725 E0.10435
G1 X16.988 Y8.944 E0.04365
G1 X16.025 Y7.980 E0.10435
G1 X15.498 Y8.198 E0.04365
G1 X16.461 Y9.162 E0.10435
G1 X15.935 Y9.380 E0.04365
G1 X14.972 Y8.416 E0.10435
G1 X14.445 Y8.634 E0.04365
G1 X15.408 Y9.598 E0.10435
G1 X14.882 Y9.816 E0.04365
G1 X13.919 Y8.853 E0.10435
G1 X7.076 Y7.221 F15000.000
G1 F600
G1 X6.779 Y6.924 E0.03212
G1 E-3.00000 F15000.00000
G1 Z0.750 F15000.000
G1 X16.580 Y-7.842 F15000.000
G1 Z0.350 F15000.000
G1 E3.00000 F15000.00000
G1 F600
G1 X14.570 Y-9.853 E0.21780
G1 X17.112 Y-8.800 F15000.000
G1 F600
G1 X19.122 Y-6.789 E0.21781
G1 X19.653 Y-7.747 F15000.000
G1 F600
G1 X21.747 Y-5.653 E0.22683
G1 X20.789 Y-5.122 F15000.000
G1 F600
G1 X22.800 Y-3.112 E0.21781
G1 X21.842 Y-2.580 F15000.000
G1 F600
G1 X23.853 Y-0.570 E0.21781
G1 X21.221 Y-6.924 F15000.000
G1 F600
G1 X20.924 Y-7.221 E0.03213
G1 E-3.00000 F15000.00000
G1 Z0.750 F15000.000
G1 X-5.623 Y0.260 F15000.000
G1 Z0.350 F15000.000
G1 E3.00000 F15000.00000
G1 F1440
G1 X-5.927 Y2.371 E0.16285
G1 X-6.922 Y4.549 E0.18292
G1 X-8.490 Y6.359 E0.18292
G1 X-10.505 Y7.654 E0.18292
G1 X-12.803 Y8.329 E0.18292
G1 X-15.197 Y8.329 E0.18292
G1 X-17.495 Y7.654 E0.18292
G1 X-19.510 Y6.359 E0.18292
G1 X-21.078 Y4.549 E0.18292
G1 X-22.073 Y2.371 E0.18292
G1 X-22.414 Y-0.000 E0.18292
G1 X-22.073 Y-2.371 E0.18292
G1 X-21.078 Y-4.549 E0.18292
G1 X-19.510 Y-6.359 E0.18292
G1 X-17.495 Y-7.654 E0.18292
G1 X-15.197 Y-8.329 E0.18292
G1 F1440
G1 X-12.803 Y-8.329 E0.18292
G1 X-10.505 Y-7.654 E0.18292
G1 X-8.490 Y-6.359 E0.18292
G1 X-6.922 Y-4.549 E0.18292
G1 X-5.927 Y-2.371 E0.18292
G1 X-5.586 Y-0.000 E0.18292
G1 X-5.615 Y0.201 E0.01548
G1 X-6.143 Y0.185 F15000.000
G1 F1440
G1 X-6.435 Y2.221 E0.15709
G1 X-7.368 Y4.262 E0.17139
G1 X-8.837 Y5.958 E0.17139
G1 X-10.725 Y7.171 E0.17139
G1 X-12.878 Y7.804 E0.17139
G1 X-15.122 Y7.804 E0.17139
G1 X-17.275 Y7.171 E0.17139
G1 X-19.163 Y5.958 E0.17139
G1 X-20.632 Y4.262 E0.17139
G1 X-21.565 Y2.221 E0.17139
G1 X-21.884 Y-0.000 E0.17139
G1 X-21.565 Y-2.221 E0.17139
G1 X-20.632 Y-4.262 E0.17139
G1 X-19.163 Y-5.958 E0.17139
G1 X-17.275 Y-7.171 E0.17139
G1 X-15.122 Y-7.804 E0.17139
G1 F1440
G1 X-12.878 Y-7.804 E0.17139
G1 X-10.725 Y-7.171 E0.17139
G1 X-8.837 Y-5.958 E0.17139
G1 X-7.368 Y-4.262 E0.17139
G1 X-6.435 Y-2.221 E0.17139
G1 X-6.116 Y-0.000 E0.17139
G1 X-6.134 Y0.126 E0.00972
G1 X-6.662 Y0.111 F15000.000
G1 F1440
G1 X-6.944 Y2.072 E0.15133
G1 X-7.814 Y3.976 E0.15986
G1 X-9.184 Y5.557 E0.15986
G1 X-10.945 Y6.689 E0.15986
G1 X-12.953 Y7.279 E0.15986
G1 X-15.047 Y7.279 E0.15986
G1 X-17.055 Y6.689 E0.15986
G1 X-18.816 Y5.557 E0.15986
G1 X-20.186 Y3.976 E0.15986
G1 X-21.056 Y2.072 E0.15986
G1 X-21.354 Y-0.000 E0.15986
G1 X-21.056 Y-2.072 E0.15986
G1 X-20.186 Y-3.976 E0.15986
G1 X-18.816 Y-5.557 E0.15986
G1 X-17.055 Y-6.689 E0.15986
G1 X-15.047 Y-7.279 E0.15986
G1 F1440
G1 X-12.953 Y-7.279 E0.15986
G1 X-10.945 Y-6.689 E0.15986
G1 X-9.184 Y-5.557 E0.15986
G1 X-7.814 Y-3.976 E0.15986
G1 X-6.944 Y-2.072 E0.15986
G1 X-6.646 Y-0.000 E0.15986
G1 X-6.654 Y0.051 E0.00395
G1 X-6.327 Y0.328 F15000.000
G1 X-3.455 Y0.448 F15000.000
G1 F1440
G1 X-3.639 Y2.202 E0.13475
G1 X-4.323 Y4.308 E0.16914
G1 X-5.430 Y6.226 E0.16914
G1 X-6.912 Y7.872 E0.16913
G1 X-8.704 Y9.173 E0.16914
G1 X-10.727 Y10.074 E0.16914
G1 X-12.893 Y10.535 E0.16913
G1 X-15.107 Y10.535 E0.16913
G1 X-17.273 Y10.074 E0.16913
G1 X-19.296 Y9.173 E0.16914
G1 X-21.088 Y7.872 E0.16914
G1 X-22.570 Y6.226 E0.16913
G1 X-23.677 Y4.308 E0.16914
G1 X-24.361 Y2.202 E0.16914
G1 X-24.593 Y-0.000 E0.16913
G1 X-24.361 Y-2.202 E0.16913
G1 X-23.677 Y-4.308 E0.16914
G1 X-22.570 Y-6.226 E0.16913
G1 X-21.088 Y-7.872 E0.16913
G1 X-19.296 Y-9.173 E0.16914
G1 X-17.273 Y-10.074 E0.16914
G1 X-15.107 Y-10.535 E0.16913
G1 X-12.893 Y-10.535 E0.16913
G1 X-10.727 Y-10.074 E0.16913
G1 F1440
G1 X-8.704 Y-9.173 E0.16914
G1 X-6.912 Y-7.872 E0.16914
G1 X-5.430 Y-6.226 E0.16913
G1 X-4.323 Y-4.308 E0.16913
G1 X-3.639 Y-2.202 E0.16914
G1 X-3.407 Y-0.000 E0.16913
G1 X-3.448 Y0.388 E0.02980
G1 X-2.933 Y0.503 F15000.000
G1 F1440
G1 X-3.123 Y2.312 E0.13896
G1 X-3.841 Y4.523 E0.17756
G1 X-5.004 Y6.536 E0.17756
G1 X-6.559 Y8.264 E0.17756
G1 X-8.440 Y9.630 E0.17756
G1 X-10.564 Y10.576 E0.17756
G1 X-12.838 Y11.059 E0.17756
G1 X-15.162 Y11.059 E0.17756
G1 X-17.436 Y10.576 E0.17756
G1 X-19.560 Y9.630 E0.17756
G1 X-21.441 Y8.264 E0.17756
G1 X-22.996 Y6.536 E0.17756
G1 X-24.159 Y4.523 E0.17756
G1 X-24.877 Y2.312 E0.17756
G1 X-25.120 Y-0.000 E0.17756
G1 X-24.877 Y-2.312 E0.17756
G1 X-24.159 Y-4.523 E0.17756
G1 X-22.996 Y-6.536 E0.17756
G1 X-21.441 Y-8.264 E0.17756
G1 X-19.560 Y-9.630 E0.17756
G1 X-17.436 Y-10.576 E0.17756
G1 X-15.162 Y-11.059 E0.17756
G1 X-12.838 Y-11.059 E0.17756
G1 X-10.617 Y-10.587 E0.17341
G1 F1440
G1 X-8.440 Y-9.630 E0.18163
G1 X-6.559 Y-8.264 E0.17756
G1 X-5.004 Y-6.536 E0.17756
G1 X-3.841 Y-4.523 E0.17756
G1 X-3.123 Y-2.312 E0.17756
G1 X-2.880 Y-0.000 E0.17756
G1 X-2.926 Y0.443 E0.03402
G1 X-2.411 Y0.557 F15000.000
G1 F1440
G1 X-2.606 Y2.422 E0.14318
G1 X-3.359 Y4.738 E0.18599
G1 X-4.577 Y6.847 E0.18599
G1 X-6.206 Y8.656 E0.18599
G1 X-8.176 Y10.088 E0.18599
G1 X-10.401 Y11.078 E0.18599
G1 X-12.782 Y11.584 E0.18599
G1 X-15.218 Y11.584 E0.18599
G1 X-17.599 Y11.078 E0.18599
G1 X-19.824 Y10.088 E0.18599
G1 X-21.794 Y8.656 E0.18599
G1 X-23.423 Y6.847 E0.18599
G1 X-24.641 Y4.738 E0.18599
G1 X-25.394 Y2.422 E0.18599
G1 X-25.648 Y-0.000 E0.18599
G1 X-25.394 Y-2.422 E0.18599
G1 X-24.641 Y-4.738 E0.18599
G1 X-23.423 Y-6.847 E0.18599
G1 X-21.794 Y-8.656 E0.18599
G1 X-19.824 Y-10.088 E0.18599
G1 X-17.599 Y-11.078 E0.18599
G1 X-15.218 Y-11.584 E0.18599
G1 X-12.782 Y-11.584 E0.18599
G1 X-10.508 Y-11.101 E0.17762
G1 F1440
G1 X-10.401 Y-11.078 E0.00837
G1 X-8.176 Y-10.088 E0.18599
G1 X-6.206 Y-8.656 E0.18599
G1 X-4.577 Y-6.847 E0.18599
G1 X-3.359 Y-4.738 E0.18599
G1 X-2.606 Y-2.422 E0.18599
G1 X-2.352 Y-0.000 E0.18599
G1 X-2.404 Y0.498 E0.03823
G1 X-2.766 Y0.741 F15000.000
G1 X-4.314 Y-3.132 F15000.000
G1 F600
G1 X-10.951 Y-9.769 E0.72825
G1 X-9.592 Y-9.164 F15000.000
G1 F600
G1 X-4.812 Y-4.384 E0.52449
G1 X-6.538 Y-4.602 F15000.000
G1 F600
G1 X-3.951 Y-2.015 E0.28379
G1 X-3.859 Y-1.169 E0.06600
G1 X-5.904 Y-3.214 E0.22433
G1 X-5.554 Y-2.110 E0.08983
G1 X-3.771 Y-0.327 E0.19567
G1 X-3.759 Y0.439 E0.05940
G1 X-5.427 Y-1.229 E0.18305
G1 X-5.301 Y-0.349 E0.06902
G1 X-3.831 Y1.121 E0.16129
G1 X-3.902 Y1.804 E0.05323
G1 X-5.336 Y0.370 E0.15727
G1 X-5.431 Y1.029 E0.05167
G1 X-4.018 Y2.442 E0.15505
G1 X-4.202 Y3.012 E0.04642
G1 X-5.525 Y1.689 E0.14516
G1 X-5.620 Y2.348 E0.05167
G1 X-4.387 Y3.581 E0.13527
G1 X-4.572 Y4.150 E0.04642
G1 X-5.850 Y2.872 E0.14014
G1 X-6.086 Y3.390 E0.04415
G1 X-4.833 Y4.643 E0.13748
G1 X-5.109 Y5.121 E0.04282
G1 X-6.322 Y3.908 E0.13313
G1 X-6.559 Y4.425 E0.04415
G1 X-5.385 Y5.599 E0.12879
G1 X-5.661 Y6.077 E0.04282
G1 X-6.855 Y4.883 E0.13101
G1 X-7.205 Y5.287 E0.04147
G1 X-6.017 Y6.475 E0.13038
G1 X-6.374 Y6.872 E0.04142
G1 X-7.555 Y5.691 E0.12959
G1 X-7.905 Y6.095 E0.04147
G1 X-6.731 Y7.269 E0.12880
G1 X-7.103 Y7.651 E0.04137
G1 X-8.255 Y6.499 E0.12644
G1 X-8.694 Y6.814 E0.04192
G1 X-7.525 Y7.983 E0.12824
G1 X-7.962 Y8.300 E0.04188
G1 X-9.153 Y7.109 E0.13069
G1 X-9.612 Y7.404 E0.04233
G1 X-8.399 Y8.617 E0.13313
G1 X-8.841 Y8.929 E0.04198
G1 X-10.071 Y7.699 E0.13496
G1 X-10.555 Y7.969 E0.04300
G1 X-9.363 Y9.161 E0.13084
G1 X-9.884 Y9.394 E0.04431
G1 X-11.138 Y8.140 E0.13755
G1 X-11.721 Y8.311 E0.04713
G1 X-10.406 Y9.626 E0.14426
G1 X-10.962 Y9.824 E0.04580
G1 X-12.304 Y8.482 E0.14717
G1 X-12.897 Y8.643 E0.04766
G1 X-11.584 Y9.956 E0.14400
G1 X-12.206 Y10.088 E0.04932
G1 X-13.651 Y8.643 E0.15850
G1 X-14.405 Y8.643 E0.05850
G1 X-12.828 Y10.220 E0.17296
G1 X-13.582 Y10.220 E0.05850
G1 X-15.159 Y8.643 E0.17296
G1 X-16.138 Y8.418 E0.07799
G1 X-14.336 Y10.220 E0.19771
G1 X-15.128 Y10.182 E0.06148
G1 X-17.206 Y8.104 E0.22797
G1 X-18.408 Y9.164 F15000.000
G1 F600
G1 X-23.188 Y4.384 E0.52448
G1 X-22.096 Y3.214 F15000.000
G1 F600
G1 X-24.141 Y1.169 E0.22433
G1 X-24.229 Y0.327 E0.06573
G1 X-22.446 Y2.110 E0.19567
G1 X-22.573 Y1.229 E0.06902
G1 X-24.241 Y-0.439 E0.18305
G1 X-24.169 Y-1.121 E0.05323
G1 X-22.699 Y0.349 E0.16129
G1 X-22.664 Y-0.370 E0.05584
G1 X-24.098 Y-1.804 E0.15727
G1 X-23.982 Y-2.442 E0.05037
G1 X-22.569 Y-1.029 E0.15505
G1 X-22.475 Y-1.689 E0.05167
G1 X-23.798 Y-3.012 E0.14516
G1 X-23.613 Y-3.581 E0.04642
G1 X-22.380 Y-2.348 E0.13527
G1 X-22.150 Y-2.872 E0.04442
G1 X-23.428 Y-4.150 E0.14014
G1 X-23.167 Y-4.643 E0.04329
G1 X-21.914 Y-3.390 E0.13748
G1 X-21.678 Y-3.908 E0.04415
G1 X-22.891 Y-5.121 E0.13313
G1 X-22.615 Y-5.599 E0.04282
G1 X-21.441 Y-4.425 E0.12879
G1 X-21.145 Y-4.883 E0.04230
G1 X-22.339 Y-6.077 E0.13101
G1 X-21.983 Y-6.475 E0.04143
G1 X-20.795 Y-5.287 E0.13038
G1 X-20.445 Y-5.691 E0.04147
G1 X-21.626 Y-6.872 E0.12959
G1 X-21.269 Y-7.269 E0.04142
