--xYzZY
Content-Disposition: form-data; name="file"; filename="xyzCalibration_cube.g"
Content-Type: text/plain

; generated by Slic3r 1.3.0-dev on 2017-08-14 at 16:12:51

; Printer Config Notes: 
; ""
; 
; external perimeters extrusion width = 0.50mm (7.84mm^3/s)
; perimeters extrusion width = 0.50mm (11.76mm^3/s)
; infill extrusion width = 0.40mm (9.06mm^3/s)
; solid infill extrusion width = 0.40mm (6.04mm^3/s)
; top infill extrusion width = 0.40mm (6.04mm^3/s)

M107
M190 S58 ; set bed temperature and wait for it to be reached
M104 S200 ; set temperature
M83
T0
M116
G32

; Filament gcode

M109 S200 ; set temperature and wait for it to be reached
G21 ; set units to millimeters
G90 ; use absolute coordinates
M83 ; use relative distances for extrusion
G1 E-2.00000 F3000.00000
G1 Z0.200 F15000.000
G1 Z0.300 F15000.000
G1 Z0.500 F15000.000
G1 X9.950 Y-14.021 F15000.000
G1 Z0.300 F15000.000
G1 E2.00000 F3000.00000
G1 F1080
G1 X11.700 Y-13.626 E0.12261
G1 X13.110 Y-12.518 E0.12261
G1 X13.906 Y-10.911 E0.12261
G1 X14.021 Y-9.950 E0.06614
G1 X14.021 Y9.950 E1.36034
G1 X13.626 Y11.700 E0.12261
G1 X12.518 Y13.110 E0.12261
G1 X10.911 Y13.906 E0.12261
G1 X9.950 Y14.021 E0.06614
G1 X-9.950 Y14.021 E1.36034
G1 X-11.700 Y13.626 E0.12261
G1 X-13.110 Y12.518 E0.12261
G1 X-13.906 Y10.911 E0.12261
G1 X-14.021 Y9.950 E0.06614
G1 X-14.021 Y-9.950 E1.36034
G1 X-13.626 Y-11.700 E0.12261
G1 X-12.518 Y-13.110 E0.12261
G1 X-10.911 Y-13.906 E0.12261
G1 X-9.950 Y-14.021 E0.06614
G1 X9.890 Y-14.021 E1.35624
G1 X9.950 Y-13.486 F15000.000
G1 F1080
G1 X11.573 Y-13.091 E0.11415
G1 X12.833 Y-11.996 E0.11415
G1 X13.486 Y-9.950 E0.14681
G1 X13.486 Y9.950 E1.36034
G1 X13.091 Y11.573 E0.11415
G1 X11.996 Y12.833 E0.11415
G1 X9.950 Y13.486 E0.14681
G1 X-9.950 Y13.486 E1.36034
G1 X-11.573 Y13.091 E0.11415
G1 X-12.833 Y11.996 E0.11415
G1 X-13.486 Y9.950 E0.14681
G1 X-13.486 Y-9.950 E1.36034
G1 X-13.091 Y-11.573 E0.11415
G1 X-11.996 Y-12.833 E0.11415
G1 X-9.950 Y-13.486 E0.14681
G1 X9.890 Y-13.486 E1.35624
G1 E-2.00000 F3000.00000
G1 Z0.500 F15000.000
G1 X-8.579 Y-8.579 F15000.000
G1 Z0.300 F15000.000
G1 E2.00000 F3000.00000
G1 F1080
G1 X8.579 Y-8.579 E1.17287
G1 X8.579 Y8.579 E1.17287
G1 X-8.579 Y8.579 E1.17287
G1 X-8.579 Y-8.519 E1.16877
G1 X-9.114 Y-9.114 F15000.000
G1 F1080
G1 X9.114 Y-9.114 E1.24610
G1 X9.114 Y9.114 E1.24610
G1 X-9.114 Y9.114 E1.24610
G1 X-9.114 Y-9.054 E1.24200
G1 X-9.650 Y-9.650 F15000.000
G1 F720
G1 X9.650 Y-9.650 E1.31933
G1 X9.650 Y9.650 E1.31933
G1 X-9.650 Y9.650 E1.31933
G1 X-9.650 Y-9.590 E1.31523
G1 X-9.264 Y-9.546 F15000.000
G1 E-2.00000 F3000.00000
G1 Z0.500 F15000.000
G1 X-0.536 Y-0.536 F15000.000
G1 Z0.300 F15000.000
G1 E2.00000 F3000.00000
G1 F720
G1 X0.536 Y-0.536 E0.07339
G1 X0.536 Y0.536 E0.07339
G1 X-0.536 Y0.536 E0.07339
G1 X-0.536 Y-0.476 E0.06929
G1 X-1.072 Y-1.072 F15000.000
G1 F720
G1 X1.072 Y-1.072 E0.14678
G1 X1.072 Y1.072 E0.14678
G1 X-1.072 Y1.072 E0.14678
G1 X-1.072 Y-1.012 E0.14268
G1 X-1.609 Y-1.609 F15000.000
G1 F720
G1 X1.609 Y-1.609 E0.22017
G1 X1.609 Y1.609 E0.22017
G1 X-1.609 Y1.609 E0.22017
G1 X-1.609 Y-1.549 E0.21607
G1 X-2.145 Y-2.145 F15000.000
G1 F720
G1 X2.145 Y-2.145 E0.29356
G1 X2.145 Y2.145 E0.29356
G1 X-2.145 Y2.145 E0.29356
G1 X-2.145 Y-2.085 E0.28946
G1 X-2.681 Y-2.681 F15000.000
G1 F720
G1 X2.681 Y-2.681 E0.36695
G1 X2.681 Y2.681 E0.36695
G1 X-2.681 Y2.681 E0.36695
G1 X-2.681 Y-2.621 E0.36285
G1 X-3.217 Y-3.217 F15000.000
G1 F720
G1 X3.217 Y-3.217 E0.44034
G1 X3.217 Y3.217 E0.44034
G1 X-3.217 Y3.217 E0.44034
G1 X-3.217 Y-3.157 E0.43624
G1 X-3.753 Y-3.753 F15000.000
G1 F720
G1 X3.753 Y-3.753 E0.51373
G1 X3.753 Y3.753 E0.51373
G1 X-3.753 Y3.753 E0.51373
G1 X-3.753 Y-3.693 E0.50963
G1 X-4.290 Y-4.290 F15000.000
G1 F720
G1 X4.290 Y-4.290 E0.58712
G1 X4.290 Y4.290 E0.58712
G1 X-4.290 Y4.290 E0.58712
G1 X-4.290 Y-4.230 E0.58302
G1 X-4.826 Y-4.826 F15000.000
G1 F720
G1 X4.826 Y-4.826 E0.66052
G1 X4.826 Y4.826 E0.66052
G1 X-4.826 Y4.826 E0.66052
G1 X-4.826 Y-4.766 E0.65641
G1 X-5.362 Y-5.362 F15000.000
G1 F720
G1 X5.362 Y-5.362 E0.73391
G1 X5.362 Y5.362 E0.73391
G1 X-5.362 Y5.362 E0.73391
G1 X-5.362 Y-5.302 E0.72980
G1 X-5.898 Y-5.898 F15000.000
G1 F720
G1 X5.898 Y-5.898 E0.80730
G1 X5.898 Y5.898 E0.80730
G1 X-5.898 Y5.898 E0.80730
G1 X-5.898 Y-5.838 E0.80319
G1 X-6.435 Y-6.435 F15000.000
G1 F720
G1 X6.435 Y-6.435 E0.88069
G1 X6.435 Y6.435 E0.88069
G1 X-6.435 Y6.435 E0.88069
G1 X-6.435 Y-6.375 E0.87658
G1 X-6.971 Y-6.971 F15000.000
G1 F720
G1 X6.971 Y-6.971 E0.95408
G1 X6.971 Y6.971 E0.95408
G1 X-6.971 Y6.971 E0.95408
G1 X-6.971 Y-6.911 E0.94997
G1 X-7.507 Y-7.507 F15000.000
G1 F720
G1 X7.507 Y-7.507 E1.02747
G1 X7.507 Y7.507 E1.02747
G1 X-7.507 Y7.507 E1.02747
G1 X-7.507 Y-7.447 E1.02336
G1 X-8.043 Y-8.043 F15000.000
G1 F720
G1 X8.043 Y-8.043 E1.10086
G1 X8.043 Y8.043 E1.10086
G1 X-8.043 Y8.043 E1.10086
G1 X-8.043 Y-7.983 E1.09675
G1 E-2.00000 F3000.00000
G1 Z0.500 F15000.000
G1 Z0.600 F15000.000
G1 X-8.829 Y-8.829 F15000.000
G1 E2.00000 F3000.00000
G1 F5400
G1 X8.829 Y-8.829 E0.98169
G1 X8.829 Y8.829 E0.98169
G1 X-8.829 Y8.829 E0.98169
G1 X-8.829 Y-8.769 E0.97836
G1 X-9.264 Y-9.264 F15000.000
G1 F5400
G1 X9.264 Y-9.264 E1.03013
G1 X9.264 Y9.264 E1.03013
G1 X-9.264 Y9.264 E1.03013
G1 X-9.264 Y-9.204 E1.02680
G1 X-9.700 Y-9.700 F15000.000
G1 F3600
G1 X9.700 Y-9.700 E1.07857
G1 X9.700 Y9.700 E1.07857
G1 X-9.700 Y9.700 E1.07857
G1 X-9.700 Y-9.640 E1.07523
G1 X-9.314 Y-9.596 F15000.000
G1 X-8.402 Y8.484 F15000.000
G1 F3600
G1 X-8.484 Y8.402 E0.00497
G1 X-8.484 Y7.926 E0.02042
G1 X-7.926 Y8.484 E0.03385
G1 X-7.451 Y8.484 E0.02042
G1 X-8.484 Y7.451 E0.06273
G1 X-8.484 Y6.975 E0.02042
G1 X-6.975 Y8.484 E0.09161
G1 X-6.499 Y8.484 E0.02042
G1 X-8.484 Y6.499 E0.12048
G1 X-8.484 Y6.024 E0.02042
G1 X-6.024 Y8.484 E0.14936
G1 X-5.548 Y8.484 E0.02042
G1 X-8.484 Y5.548 E0.17824
G1 X-8.484 Y5.072 E0.02042
G1 X-5.072 Y8.484 E0.20711
G1 X-4.597 Y8.484 E0.02042
G1 X-8.484 Y4.597 E0.23599
G1 X-8.484 Y4.121 E0.02042
G1 X-4.121 Y8.484 E0.26487
G1 X-3.645 Y8.484 E0.02042
G1 X-8.484 Y3.645 E0.29374
G1 X-8.484 Y3.170 E0.02042
G1 X-3.170 Y8.484 E0.32262
G1 X-2.694 Y8.484 E0.02042
G1 X-8.484 Y2.694 E0.35150
G1 X-8.484 Y2.218 E0.02042
G1 X-2.218 Y8.484 E0.38037
G1 X-1.743 Y8.484 E0.02042
G1 X-8.484 Y1.743 E0.40925
G1 X-8.484 Y1.267 E0.02042
G1 X-1.267 Y8.484 E0.43813
G1 X-0.791 Y8.484 E0.02042
G1 X-8.484 Y0.791 E0.46700
G1 X-8.484 Y0.316 E0.02042
G1 X-0.316 Y8.484 E0.49588
G1 X0.160 Y8.484 E0.02042
G1 X-8.484 Y-0.160 E0.52475
G1 X-8.484 Y-0.636 E0.02042
G1 X0.636 Y8.484 E0.55363
G1 X1.111 Y8.484 E0.02042
G1 X-8.484 Y-1.111 E0.58251
G1 X-8.484 Y-1.587 E0.02042
G1 X1.587 Y8.484 E0.61138
G1 X2.063 Y8.484 E0.02042
G1 X-8.484 Y-2.063 E0.64026
G1 X-8.484 Y-2.538 E0.02042
G1 X2.538 Y8.484 E0.66914
G1 X3.014 Y8.484 E0.02042
G1 X-8.484 Y-3.014 E0.69801
G1 X-8.484 Y-3.490 E0.02042
G1 X3.490 Y8.484 E0.72689
G1 X3.965 Y8.484 E0.02042
G1 X-8.484 Y-3.965 E0.75577
G1 X-8.484 Y-4.441 E0.02042
G1 X4.441 Y8.484 E0.78464
G1 X4.917 Y8.484 E0.02042
G1 X-8.484 Y-4.917 E0.81352
G1 X-8.484 Y-5.392 E0.02042
G1 X5.392 Y8.484 E0.84240
G1 X5.868 Y8.484 E0.02042
G1 X-8.484 Y-5.868 E0.87127
G1 X-8.484 Y-6.344 E0.02042
G1 X6.344 Y8.484 E0.90015
G1 X6.819 Y8.484 E0.02042
G1 X-8.484 Y-6.819 E0.92903
G1 X-8.484 Y-7.295 E0.02042
G1 X7.295 Y8.484 E0.95790
G1 X7.771 Y8.484 E0.02042
G1 X-8.484 Y-7.771 E0.98678
G1 X-8.484 Y-8.246 E0.02042
G1 X8.246 Y8.484 E1.01565
G1 X8.484 Y8.484 E0.01021
G1 X8.484 Y8.246 E0.01021
G1 X-8.246 Y-8.484 E1.01565
G1 X-7.771 Y-8.484 E0.02042
G1 X8.484 Y7.771 E0.98678
G1 X8.484 Y7.295 E0.02042
G1 X-7.295 Y-8.484 E0.95790
G1 X-6.819 Y-8.484 E0.02042
G1 X8.484 Y6.819 E0.92902
G1 X8.484 Y6.344 E0.02042
G1 X-6.344 Y-8.484 E0.90015
G1 X-5.868 Y-8.484 E0.02042
G1 X8.484 Y5.868 E0.87127
G1 X8.484 Y5.392 E0.02042
G1 X-5.392 Y-8.484 E0.84239
G1 X-4.917 Y-8.484 E0.02042
G1 X8.484 Y4.917 E0.81352
G1 X8.484 Y4.441 E0.02042
G1 X-4.441 Y-8.484 E0.78464
G1 X-3.965 Y-8.484 E0.02042
G1 X8.484 Y3.965 E0.75576
G1 X8.484 Y3.490 E0.02042
G1 X-3.490 Y-8.484 E0.72689
G1 X-3.014 Y-8.484 E0.02042
G1 X8.484 Y3.014 E0.69801
G1 X8.484 Y2.538 E0.02042
G1 X-2.538 Y-8.484 E0.66913
G1 X-2.063 Y-8.484 E0.02042
G1 X8.484 Y2.063 E0.64026
G1 X8.484 Y1.587 E0.02042
G1 X-1.587 Y-8.484 E0.61138
G1 X-1.111 Y-8.484 E0.02042
G1 X8.484 Y1.111 E0.58250
G1 X8.484 Y0.636 E0.02042
G1 X-0.636 Y-8.484 E0.55363
G1 X-0.160 Y-8.484 E0.02042
G1 X8.484 Y0.160 E0.52475
G1 X8.484 Y-0.316 E0.02042
G1 X0.316 Y-8.484 E0.49587
G1 X0.791 Y-8.484 E0.02042
G1 X8.484 Y-0.791 E0.46700
G1 X8.484 Y-1.267 E0.02042
G1 X1.267 Y-8.484 E0.43812
G1 X1.743 Y-8.484 E0.02042
G1 X8.484 Y-1.743 E0.40925
G1 X8.484 Y-2.218 E0.02042
G1 X2.218 Y-8.484 E0.38037
G1 X2.694 Y-8.484 E0.02042
G1 X8.484 Y-2.694 E0.35149
G1 X8.484 Y-3.170 E0.02042
G1 X3.170 Y-8.484 E0.32262
G1 X3.645 Y-8.484 E0.02042
G1 X8.484 Y-3.645 E0.29374
G1 X8.484 Y-4.121 E0.02042
G1 X4.121 Y-8.484 E0.26486
G1 X4.597 Y-8.484 E0.02042
G1 X8.484 Y-4.597 E0.23599
G1 X8.484 Y-5.072 E0.02042
G1 X5.072 Y-8.484 E0.20711
G1 X5.548 Y-8.484 E0.02042
G1 X8.484 Y-5.548 E0.17823
G1 X8.484 Y-6.024 E0.02042
G1 X6.024 Y-8.484 E0.14936
G1 X6.499 Y-8.484 E0.02042
G1 X8.484 Y-6.499 E0.12048
G1 X8.484 Y-6.975 E0.02042
G1 X6.975 Y-8.484 E0.09160
G1 X7.451 Y-8.484 E0.02042
G1 X8.484 Y-7.451 E0.06273
G1 X8.484 Y-7.926 E0.02042
G1 X7.926 Y-8.484 E0.03385
G1 X8.402 Y-8.484 E0.02042
G1 X8.484 Y-8.402 E0.00497
M106 S252.45
G1 E-2.00000 F3000.00000
G1 Z0.800 F15000.000
G1 Z0.900 F15000.000
G1 X-8.829 Y-8.829 F15000.000
G1 E2.00000 F3000.00000
G1 F5400
G1 X8.829 Y-8.829 E0.98169
G1 X8.829 Y8.829 E0.98169
G1 X-8.829 Y8.829 E0.98169
G1 X-8.829 Y-8.769 E0.97836
G1 X-9.264 Y-9.264 F15000.000
G1 F5400
G1 X9.264 Y-9.264 E1.03013
G1 X9.264 Y9.264 E1.03013
G1 X-9.264 Y9.264 E1.03013
G1 X-9.264 Y-9.204 E1.02680
G1 X-9.700 Y-9.700 F15000.000
G1 F3600
G1 X9.700 Y-9.700 E1.07857
G1 X9.700 Y9.700 E1.07857
G1 X-9.700 Y9.700 E1.07857
G1 X-9.700 Y-9.640 E1.07523
G1 X-9.314 Y-9.596 F15000.000
G1 X-8.146 Y-8.499 F15000.000
G1 F5400
G1 X-8.458 Y-7.336 E0.05158
G1 X-8.499 Y-5.541 F15000.000
G1 F5400
G1 X2.390 Y-8.458 E0.48286
G1 X2.277 Y-8.499 F15000.000
G1 F5400
G1 X-2.277 Y8.499 E0.75377
G1 X-2.390 Y8.458 F15000.000
G1 F5400
G1 X8.499 Y5.541 E0.48286
G1 X8.458 Y7.336 F15000.000
G1 F5400
G1 X8.146 Y8.499 E0.05158
G1 X2.935 Y8.499 F15000.000
G1 F5400
G1 X7.489 Y-8.499 E0.75377
G1 X8.484 Y-5.755 F15000.000
G1 F5400
G1 X5.755 Y-8.484 E0.16531
G1 X-1.365 Y-8.484 E0.30496
G1 X8.484 Y1.365 E0.59659
G1 X8.484 Y8.484 E0.30496
G1 X-8.484 Y-8.484 E1.02786
G1 X-8.484 Y-1.365 E0.30496
G1 X1.365 Y8.484 E0.59659
G1 X-5.755 Y8.484 E0.30496
G1 X-8.484 Y5.755 E0.16531
G1 X-8.499 Y4.883 F15000.000
G1 F5400
G1 X8.499 Y0.329 E0.75377
G1 X8.499 Y-4.883 F15000.000
G1 F5400
G1 X-8.499 Y-0.329 E0.75377
G1 X-7.489 Y8.499 F15000.000
G1 F5400
G1 X-2.935 Y-8.499 E0.75377
G1 E-2.00000 F3000.00000
G1 Z1.100 F15000.000
G1 Z1.200 F15000.000
G1 X-8.829 Y-8.829 F15000.000
G1 E2.00000 F3000.00000
G1 F5400
G1 X8.829 Y-8.829 E0.98169
G1 X8.829 Y8.829 E0.98169
G1 X-8.829 Y8.829 E0.98169
G1 X-8.829 Y-8.769 E0.97836
G1 X-9.264 Y-9.264 F15000.000
G1 F5400
G1 X9.264 Y-9.264 E1.03013
G1 X9.264 Y9.264 E1.03013
G1 X-9.264 Y9.264 E1.03013
G1 X-9.264 Y-9.204 E1.02680
G1 X-9.700 Y-9.700 F15000.000
G1 F3600
G1 X9.700 Y-9.700 E1.07857
G1 X9.700 Y9.700 E1.07857
G1 X-9.700 Y9.700 E1.07857
G1 X-9.700 Y-9.640 E1.07523
G1 X-9.314 Y-9.596 F15000.000
G1 X-8.146 Y-8.499 F15000.000
G1 F5400
G1 X-8.458 Y-7.336 E0.05158
G1 X-8.499 Y-5.541 F15000.000
G1 F5400
G1 X2.390 Y-8.458 E0.48286
G1 X2.277 Y-8.499 F15000.000
G1 F5400
G1 X-2.277 Y8.499 E0.75377
G1 X-2.390 Y8.458 F15000.000
G1 F5400
G1 X8.499 Y5.541 E0.48286
G1 X8.458 Y7.336 F15000.000
G1 F5400
G1 X8.146 Y8.499 E0.05158
G1 X2.935 Y8.499 F15000.000
G1 F5400
G1 X7.489 Y-8.499 E0.75377
G1 X8.484 Y-5.755 F15000.000
G1 F5400
G1 X5.755 Y-8.484 E0.16531
G1 X-1.365 Y-8.484 E0.30496
G1 X8.484 Y1.365 E0.59659
G1 X8.484 Y8.484 E0.30496
G1 X-8.484 Y-8.484 E1.02786
G1 X-8.484 Y-1.365 E0.30496
G1 X1.365 Y8.484 E0.59659
G1 X-5.755 Y8.484 E0.30496
G1 X-8.484 Y5.755 E0.16531
G1 X-8.499 Y4.883 F15000.000
G1 F5400
G1 X8.499 Y0.329 E0.75377
G1 X8.499 Y-4.883 F15000.000
G1 F5400
G1 X-8.499 Y-0.329 E0.75377
G1 X-7.489 Y8.499 F15000.000
G1 F5400
G1 X-2.935 Y-8.499 E0.75377
G1 E-2.00000 F3000.00000
G1 Z1.400 F15000.000
G1 Z1.500 F15000.000
G1 X-8.829 Y-8.829 F15000.000
G1 E2.00000 F3000.00000
G1 F5400
G1 X8.829 Y-8.829 E0.98169
G1 X8.829 Y8.829 E0.98169
G1 X-8.829 Y8.829 E0.98169
G1 X-8.829 Y-8.769 E0.97836
G1 X-9.264 Y-9.264 F15000.000
G1 F5400
G1 X9.264 Y-9.264 E1.03013
G1 X9.264 Y9.264 E1.03013
G1 X-9.264 Y9.264 E1.03013
G1 X-9.264 Y-9.204 E1.02680
G1 X-9.700 Y-9.700 F15000.000
G1 F3600
G1 X9.700 Y-9.700 E1.07857
G1 X9.700 Y9.700 E1.07857
G1 X-9.700 Y9.700 E1.07857
G1 X-9.700 Y-9.640 E1.07523
G1 X-9.314 Y-9.596 F15000.000
G1 X-8.146 Y-8.499 F15000.000
G1 F5400
G1 X-8.458 Y-7.336 E0.05158
G1 X-8.499 Y-5.541 F15000.000
G1 F5400
G1 X2.390 Y-8.458 E0.48286
G1 X2.277 Y-8.499 F15000.000
G1 F5400
G1 X-2.277 Y8.499 E0.75377
G1 X-2.390 Y8.458 F15000.000
G1 F5400
G1 X8.499 Y5.541 E0.48286
G1 X8.458 Y7.336 F15000.000
G1 F5400
G1 X8.146 Y8.499 E0.05158
G1 X2.935 Y8.499 F15000.000
G1 F5400
G1 X7.489 Y-8.499 E0.75377
G1 X8.484 Y-5.755 F15000.000
G1 F5400
G1 X5.755 Y-8.484 E0.16531
G1 X-1.365 Y-8.484 E0.30496
G1 X8.484 Y1.365 E0.59659
G1 X8.484 Y8.484 E0.30496
G1 X-8.484 Y-8.484 E1.02786
G1 X-8.484 Y-1.365 E0.30496
G1 X1.365 Y8.484 E0.59659
G1 X-5.755 Y8.484 E0.30496
G1 X-8.484 Y5.755 E0.16531
G1 X-8.499 Y4.883 F15000.000
G1 F5400
G1 X8.499 Y0.329 E0.75377
G1 X8.499 Y-4.883 F15000.000
G1 F5400
G1 X-8.499 Y-0.329 E0.75377
G1 X-7.489 Y8.499 F15000.000
G1 F5400
G1 X-2.935 Y-8.499 E0.75377
G1 E-2.00000 F3000.00000
G1 Z1.700 F15000.000
G1 Z1.800 F15000.000
G1 X-8.829 Y-8.829 F15000.000
G1 E2.00000 F3000.00000
G1 F5400
G1 X8.829 Y-8.829 E0.98169
G1 X8.829 Y8.829 E0.98169
G1 X-8.829 Y8.829 E0.98169
G1 X-8.829 Y-8.769 E0.97836
G1 X-9.264 Y-9.264 F15000.000
G1 F5400
G1 X9.264 Y-9.264 E1.03013
G1 X9.264 Y9.264 E1.03013
G1 X-9.264 Y9.264 E1.03013
G1 X-9.264 Y-9.204 E1.02680
G1 X-9.700 Y-9.700 F15000.000
G1 F3600
G1 X9.700 Y-9.700 E1.07857
G1 X9.700 Y9.700 E1.07857
G1 X-9.700 Y9.700 E1.07857
G1 X-9.700 Y-9.640 E1.07523
G1 X-9.314 Y-9.596 F15000.000
G1 X-8.146 Y-8.499 F15000.000
G1 F5400
G1 X-8.458 Y-7.336 E0.05158
G1 X-8.499 Y-5.541 F15000.000
G1 F5400
G1 X2.390 Y-8.458 E0.48286
G1 X2.277 Y-8.499 F15000.000
G1 F5400
G1 X-2.277 Y8.499 E0.75377
G1 X-2.390 Y8.458 F15000.000
G1 F5400
G1 X8.499 Y5.541 E0.48286
G1 X8.458 Y7.336 F15000.000
G1 F5400
G1 X8.146 Y8.499 E0.05158
G1 X2.935 Y8.499 F15000.000
G1 F5400
G1 X7.489 Y-8.499 E0.75377
G1 X8.484 Y-5.755 F15000.000
G1 F5400
G1 X5.755 Y-8.484 E0.16531
G1 X-1.365 Y-8.484 E0.30496
G1 X8.484 Y1.365 E0.59659
G1 X8.484 Y8.484 E0.30496
G1 X-8.484 Y-8.484 E1.02786
G1 X-8.484 Y-1.365 E0.30496
G1 X1.365 Y8.484 E0.59659
G1 X-5.755 Y8.484 E0.30496
G1 X-8.484 Y5.755 E0.16531
G1 X-8.499 Y4.883 F15000.000
G1 F5400
G1 X8.499 Y0.329 E0.75377
G1 X8.499 Y-4.883 F15000.000
G1 F5400
G1 X-8.499 Y-0.329 E0.75377
G1 X-7.489 Y8.499 F15000.000
G1 F5400
G1 X-2.935 Y-8.499 E0.75377
G1 E-2.00000 F3000.00000
G1 Z2.000 F15000.000
G1 Z2.100 F15000.000
G1 X-8.829 Y-8.829 F15000.000
G1 E2.00000 F3000.00000
G1 F5400
G1 X8.829 Y-8.829 E0.98169
G1 X8.829 Y8.829 E0.98169
G1 X-8.829 Y8.829 E0.98169
G1 X-8.829 Y-8.769 E0.97836
G1 X-9.264 Y-9.264 F15000.000
G1 F5400
G1 X9.264 Y-9.264 E1.03013
G1 X9.264 Y9.264 E1.03013
G1 X-9.264 Y9.264 E1.03013
G1 X-9.264 Y-9.204 E1.02680
G1 X-9.700 Y-9.700 F15000.000
G1 F3600
G1 X9.700 Y-9.700 E1.07857
G1 X9.700 Y9.700 E1.07857
G1 X-9.700 Y9.700 E1.07857
G1 X-9.700 Y-9.640 E1.07523
G1 X-9.314 Y-9.596 F15000.000
G1 X-8.146 Y-8.499 F15000.000
G1 F5400
G1 X-8.458 Y-7.336 E0.05158
G1 X-8.499 Y-5.541 F15000.000
G1 F5400
G1 X2.390 Y-8.458 E0.48286
G1 X2.277 Y-8.499 F15000.000
G1 F5400
G1 X-2.277 Y8.499 E0.75377
G1 X-2.390 Y8.458 F15000.000
G1 F5400
G1 X8.499 Y5.541 E0.48286
G1 X8.458 Y7.336 F15000.000
G1 F5400
G1 X8.146 Y8.499 E0.05158
G1 X2.935 Y8.499 F15000.000
G1 F5400
